X: 1809
T: Sweet Killaloe   #2
R: march
%S: s:3 b:16(7+9)
B: O'Neill's 1850 #1809
O: F.O'Neill
Z: Bob Safranek, rjs@gsp.org
Z: Compacted via repeats and multiple endings [JC]
M: 2/4
L: 1/16
K: D
FG \
| A2D2 F2ED | ABAG E2 \
[1,3 FG | A2D2 F2ED | C2D2 E2 :|\
[2,4 EF | G2E2 =c2E2 | D4 D2 \
:: G2 \
| A2Bc d2c2 | A2B2 =c4 |
| E2F2 G3F | E2F2 G4 || A2Bc d2 \
[1 c2 | A2B2 =c2A2 | G2E2 =c2E2 | D4 D2 :|\
[2 cd | e2d2 c2A2 | G2E2 =c2E2 | D4 D2 |]
